X:63
T:Amerikanar'n
R:sl-polska
H:efter Adolf Lindman, \"Osterg\"otland
A:\"Osterg\"otland
Z:id:hn-sp-63
M:3/4
L:1/16
K:D
([D3/A3/][F/A/]).[FA].[FA] ([D3/A3/][F/A/]).[FA].[FA] ([D3/A3/][F/A/]).[FA].[FA] |\
(L[D3A3][FA]) .A3.d f4 | ((5fgfef) .g2.f2 .e2.d2 | .c2.B2 (AB).A.G (FG)FE |\
([D3/A3/][F/A/]).[FA].[FA] ([D3/A3/][F/A/]).[FA].[FA] ([D3/A3/][F/A/]).[FA].[FA] |\
(L[D3A3]F) .A3.d f4 | ((5fgfef) .g2.f2 .e2.d2 | (cd).e.c d4 z4 :|\
|: (Ad).f.d (Ad).f.d (Ad).f.d | (Ac).e.c (Ac).e.c (Ac).e.c |\
(DG).B.G (DG).B.G (DG).B.G | (DF).A.F (DF).A.F (DF).A.F |\
(D3F) (A2d2) (f2a2) | ((5aba^ga) (b2a2) (=g2e2) | [e3c3]d [d4D4] z4 :|
